Newaita-dark/mimetypes/24/audio-x-playlist.svg

<svg height="24pt" viewBox="0 0 24 24" width="24pt" xmlns="http://www.w3.org/2000/svg" xmlns:xlink="http://www.w3.org/1999/xlink"><linearGradient id="a"><stop offset="0" stop-opacity=".27451"/><stop offset="1" stop-opacity="0"/></linearGradient><linearGradient id="b" gradientUnits="userSpaceOnUse" x1="12.403533" x2="12.403533" xlink:href="#a" y1="21.02545025" y2="22.01773315627"/><linearGradient id="c"><stop offset="0" stop-opacity=".313725"/><stop offset=".222222" stop-opacity=".27451"/><stop offset="1" stop-opacity="0"/></linearGradient><radialGradient id="d" cx="450.90894" cy="189.57936" gradientTransform="matrix(.00000013 -.0585994 -.105479 -.00000008 37.113426 47.6965)" gradientUnits="userSpaceOnUse" r="21.166656" xlink:href="#c"/><radialGradient id="e" cx="450.90894" cy="189.57936" gradientTransform="matrix(-.00000013 .0585994 .105479 .00000008 -13.794789 -5.64561)" gradientUnits="userSpaceOnUse" r="21.166656" xlink:href="#c"/><radialGradient id="f" cx="450.90894" cy="189.57936" gradientTransform="matrix(-.00000013 -.0585994 .105479 -.00000008 -13.794789 47.6965)" gradientUnits="userSpaceOnUse" r="21.166656" xlink:href="#c"/><radialGradient id="g" cx="450.90894" cy="189.57936" gradientTransform="matrix(.00000013 .0585994 -.105479 .00000008 37.113425 -5.64561)" gradientUnits="userSpaceOnUse" r="21.166656" xlink:href="#c"/><linearGradient id="h" gradientUnits="userSpaceOnUse" x1="11.65929" x2="11.65929" y1="21.0253985937" y2="2.17207760142"><stop offset="0" stop-color="#b0bec5"/><stop offset="1" stop-color="#cfd8dc"/></linearGradient><linearGradient id="i" gradientTransform="matrix(.0224206 0 0 .082039 11.281817 -12.394717)" gradientUnits="userSpaceOnUse" x1="249.18942" x2="249.18942" xlink:href="#a" y1="233.5" y2="254.66669"/><linearGradient id="j"><stop offset="0" stop-color="#78909c"/><stop offset="1" stop-color="#90a4ae"/></linearGradient><linearGradient id="k" gradientUnits="userSpaceOnUse" x1="15.87652368747" x2="15.87652368747" xlink:href="#j" y1="21.02545025" y2="2.17207784373"/><linearGradient id="l" gradientUnits="userSpaceOnUse" x1="254" x2="254" xlink:href="#j" y1="233.5" y2="-168.66667"/><linearGradient id="m" gradientUnits="userSpaceOnUse" x1="305.56444047967" x2="305.56444047967" xlink:href="#j" y1="165.42758280167" y2="-1.8942624185"/><path d="m5.953125 21.027344h11.410156v.992187h-11.410156zm0 0" fill="url(#b)"/><path d="m17.363281 21.027344h1.984375v-.996094h-1.984375zm0 0" fill="url(#d)"/><path d="m5.953125 21.027344h-1.984375v.992187h1.984375zm0 0" fill="url(#e)"/><path d="m5.953125 21.027344h-1.984375v-.996094h1.984375zm0 0" fill="url(#f)"/><path d="m17.363281 21.027344h1.984375v.992187h-1.984375zm0 0" fill="url(#g)"/><path d="m13.90625 2.171875h-8.945312c-.550782 0-.992188.441406-.992188.992187v16.867188c0 .550781.441406.996094.992188.996094h13.394531c.550781 0 .992187-.445313.992187-.996094v-12.417969zm0 0" fill="url(#h)"/><path d="m3.96875 19.648438v.382812c0 .550781.441406.996094.992188.996094h13.394531c.550781 0 .992187-.445313.992187-.996094v-.382812c0 .550781-.441406.992187-.992187.992187h-13.394531c-.550782 0-.992188-.441406-.992188-.992187zm0 0" fill-opacity=".235294"/><path d="m13.890625 6.761719h4.714844l.742187.742187v.992188h-5.457031zm0 0" fill="url(#i)"/><path d="m4.960938 2.171875c-.550782 0-.992188.441406-.992188.992187v.371094c0-.546875.441406-.992187.992188-.992187h8.945312l5.441406 5.445312v-.375l-5.441406-5.441406zm0 0" fill="#fff" fill-opacity=".392157"/><path d="m19.347656 7.613281-5.441406-5.441406v4.449219c0 .550781.441406.992187.992188.992187zm0 0" fill="url(#k)"/><path d="m13.90625 6.390625v.230469c0 .550781.441406.992187.992188.992187h4.449218l-.230468-.230469h-4.21875c-.550782 0-.992188-.445312-.992188-.992187zm0 0" fill-opacity=".235294"/><path d="m13.90625 2.171875v.371094l5.070312 5.070312h.371094zm0 0" fill="#fff" fill-opacity=".392157"/><path d="m13.90625 2.101562c-.039062 0-.070312.03125-.070312.070313v4.449219c0 .589844.476562 1.0625 1.0625 1.0625h4.449218c.03125 0 .054688-.015625.066406-.042969.011719-.023437.003907-.054687-.015624-.074219l-5.441407-5.445312c-.015625-.011719-.03125-.019532-.050781-.019532zm.070312.238282 5.203126 5.203125h-4.28125c-.511719 0-.921876-.410157-.921876-.921875zm0 0" fill="#212121"/><path d="m4.960938 2.101562c-.585938 0-1.0625.476563-1.0625 1.0625v16.867188c0 .589844.476562 1.066406 1.0625 1.066406h13.394531c.589843 0 1.0625-.476562 1.0625-1.066406v-12.417969c0-.015625-.003907-.035156-.019531-.046875l-5.441407-5.445312c-.015625-.011719-.03125-.019532-.050781-.019532zm0 .140626h8.917968l5.398438 5.402343v12.386719c0 .515625-.40625.925781-.921875.925781h-13.394531c-.511719 0-.921876-.410156-.921876-.925781v-16.867188c0-.511718.410157-.921874.921876-.921874zm0 0" fill="#212121"/><g stroke="#212121" stroke-linecap="round" stroke-linejoin="round" stroke-width="3"><path d="m164.067683-31.1009h169.317165c2.916388 0 5.249498 2.416436 5.249498 5.332824v10.582323c0 2.916388-2.33311 5.249499-5.249498 5.249499h-169.317165c-2.916388 0-5.332824-2.333111-5.332824-5.249499v-10.582323c0-2.916388 2.416436-5.332824 5.332824-5.332824zm0 0" fill="url(#l)" transform="matrix(.0468795 0 0 .0468795 -.000001 10.079088)"/><path d="m164.067683 11.228391h169.317165c2.916388 0 5.249498 2.416436 5.249498 5.332824v10.582323c0 2.916388-2.33311 5.249499-5.249498 5.249499h-169.317165c-2.916388 0-5.332824-2.333111-5.332824-5.249499v-10.582323c0-2.916388 2.416436-5.332824 5.332824-5.332824zm0 0" fill="url(#l)" transform="matrix(.0468795 0 0 .0468795 -.000001 10.079088)"/><path d="m164.067683 53.557682h95.240905c2.916388 0 5.249499 2.416436 5.249499 5.332824v10.582323c0 2.916388-2.333111 5.249499-5.249499 5.249499h-95.240905c-2.916388 0-5.332824-2.333111-5.332824-5.249499v-10.582323c0-2.916388 2.416436-5.332824 5.332824-5.332824zm0 0" fill="url(#l)" transform="matrix(.0468795 0 0 .0468795 -.000001 10.079088)"/><path d="m164.067683 95.886973h95.240905c2.916388 0 5.249499 2.416436 5.249499 5.332824v10.582323c0 2.916388-2.333111 5.249499-5.249499 5.249499h-95.240905c-2.916388 0-5.332824-2.333111-5.332824-5.249499v-10.582323c0-2.916388 2.416436-5.332824 5.332824-5.332824zm0 0" fill="url(#l)" transform="matrix(.0468795 0 0 .0468795 -.000001 10.079088)"/><path d="m285.722715 55.30752c-2.416436.083326-4.33292 1.999809-4.33292 4.416245v52.828289c0 3.333015 3.499666 5.499475 6.49938 3.916292l48.412043-26.414144c3.083039-1.666507 3.083039-6.082752 0-7.74926l-48.412043-26.414144c-.666603-.333302-1.416532-.583278-2.16646-.583278zm0 0" fill="url(#m)" fill-rule="evenodd" transform="matrix(.0468795 0 0 .0468795 0 10.079087)"/></g></svg>

<svg xmlns="http://www.w3.org/2000/svg" xmlns:xlink="http://www.w3.org/1999/xlink" width="24px" height="24px" viewBox="0 0 24 24" version="1.1">
<defs>
<linearGradient id="linear0" gradientUnits="userSpaceOnUse" x1="33.076088" y1="56.067867" x2="33.076088" y2="58.713955" gradientTransform="matrix(0.375,0,0,0.375,0,0)">
<stop offset="0" style="stop-color:rgb(0%,0%,0%);stop-opacity:0.27451;"/>
<stop offset="1" style="stop-color:rgb(0%,0%,0%);stop-opacity:0;"/>
</linearGradient>
<radialGradient id="radial0" gradientUnits="userSpaceOnUse" cx="450.908936" cy="189.579361" fx="450.908936" fy="189.579361" r="21.166656" gradientTransform="matrix(0.00000013125,-0.0585994,-0.105479,-0.000000075,37.113427,47.6965)">
<stop offset="0" style="stop-color:rgb(0%,0%,0%);stop-opacity:0.313725;"/>
<stop offset="0.222222" style="stop-color:rgb(0%,0%,0%);stop-opacity:0.27451;"/>
<stop offset="1" style="stop-color:rgb(0%,0%,0%);stop-opacity:0;"/>
</radialGradient>
<radialGradient id="radial1" gradientUnits="userSpaceOnUse" cx="450.908936" cy="189.579361" fx="450.908936" fy="189.579361" r="21.166656" gradientTransform="matrix(-0.00000013125,0.0585994,0.105479,0.000000075,-13.794788,-5.64561)">
<stop offset="0" style="stop-color:rgb(0%,0%,0%);stop-opacity:0.313725;"/>
<stop offset="0.222222" style="stop-color:rgb(0%,0%,0%);stop-opacity:0.27451;"/>
<stop offset="1" style="stop-color:rgb(0%,0%,0%);stop-opacity:0;"/>
</radialGradient>
<radialGradient id="radial2" gradientUnits="userSpaceOnUse" cx="450.908936" cy="189.579361" fx="450.908936" fy="189.579361" r="21.166656" gradientTransform="matrix(-0.00000013125,-0.0585994,0.105479,-0.000000075,-13.794788,47.6965)">
<stop offset="0" style="stop-color:rgb(0%,0%,0%);stop-opacity:0.313725;"/>
<stop offset="0.222222" style="stop-color:rgb(0%,0%,0%);stop-opacity:0.27451;"/>
<stop offset="1" style="stop-color:rgb(0%,0%,0%);stop-opacity:0;"/>
</radialGradient>
<radialGradient id="radial3" gradientUnits="userSpaceOnUse" cx="450.908936" cy="189.579361" fx="450.908936" fy="189.579361" r="21.166656" gradientTransform="matrix(0.00000013125,0.0585994,-0.105479,0.000000075,37.113424,-5.64561)">
<stop offset="0" style="stop-color:rgb(0%,0%,0%);stop-opacity:0.313725;"/>
<stop offset="0.222222" style="stop-color:rgb(0%,0%,0%);stop-opacity:0.27451;"/>
<stop offset="1" style="stop-color:rgb(0%,0%,0%);stop-opacity:0;"/>
</radialGradient>
<linearGradient id="linear1" gradientUnits="userSpaceOnUse" x1="31.091534" y1="56.067898" x2="31.091534" y2="5.792224" gradientTransform="matrix(0.375,0,0,0.375,0,0)">
<stop offset="0" style="stop-color:rgb(69.01961%,74.509805%,77.254903%);stop-opacity:1;"/>
<stop offset="1" style="stop-color:rgb(81.176472%,84.705883%,86.274511%);stop-opacity:1;"/>
</linearGradient>
<linearGradient id="linear2" gradientUnits="userSpaceOnUse" x1="249.189423" y1="233.5" x2="249.189423" y2="254.666687" gradientTransform="matrix(0.0224206,0,0,0.0820391,11.281817,-12.394718)">
<stop offset="0" style="stop-color:rgb(0%,0%,0%);stop-opacity:0.27451;"/>
<stop offset="1" style="stop-color:rgb(0%,0%,0%);stop-opacity:0;"/>
</linearGradient>
<linearGradient id="linear3" gradientUnits="userSpaceOnUse" x1="42.337395" y1="56.067867" x2="42.337395" y2="5.792208" gradientTransform="matrix(0.375,0,0,0.375,0,0)">
<stop offset="0" style="stop-color:rgb(47.058824%,56.470591%,61.176473%);stop-opacity:1;"/>
<stop offset="1" style="stop-color:rgb(56.470591%,64.313728%,68.235296%);stop-opacity:1;"/>
</linearGradient>
<linearGradient id="linear4" gradientUnits="userSpaceOnUse" x1="254" y1="233.5" x2="254" y2="-168.666672" >
<stop offset="0" style="stop-color:rgb(47.058824%,56.470591%,61.176473%);stop-opacity:1;"/>
<stop offset="1" style="stop-color:rgb(56.470591%,64.313728%,68.235296%);stop-opacity:1;"/>
</linearGradient>
<linearGradient id="linear5" gradientUnits="userSpaceOnUse" x1="254" y1="233.5" x2="254" y2="-168.666672" >
<stop offset="0" style="stop-color:rgb(47.058824%,56.470591%,61.176473%);stop-opacity:1;"/>
<stop offset="1" style="stop-color:rgb(56.470591%,64.313728%,68.235296%);stop-opacity:1;"/>
</linearGradient>
<linearGradient id="linear6" gradientUnits="userSpaceOnUse" x1="254" y1="233.5" x2="254" y2="-168.666672" >
<stop offset="0" style="stop-color:rgb(47.058824%,56.470591%,61.176473%);stop-opacity:1;"/>
<stop offset="1" style="stop-color:rgb(56.470591%,64.313728%,68.235296%);stop-opacity:1;"/>
</linearGradient>
<linearGradient id="linear7" gradientUnits="userSpaceOnUse" x1="254" y1="233.5" x2="254" y2="-168.666672" >
<stop offset="0" style="stop-color:rgb(47.058824%,56.470591%,61.176473%);stop-opacity:1;"/>
<stop offset="1" style="stop-color:rgb(56.470591%,64.313728%,68.235296%);stop-opacity:1;"/>
</linearGradient>
<linearGradient id="linear8" gradientUnits="userSpaceOnUse" x1="305.564453" y1="165.427582" x2="305.564453" y2="-1.894262" >
<stop offset="0" style="stop-color:rgb(47.058824%,56.470591%,61.176473%);stop-opacity:1;"/>
<stop offset="1" style="stop-color:rgb(56.470591%,64.313728%,68.235296%);stop-opacity:1;"/>
</linearGradient>
</defs>
<g id="surface1">
<path style=" stroke:none;fill-rule:nonzero;fill:url(#linear0);" d="M 5.953125 21.023438 L 17.363281 21.023438 L 17.363281 22.019531 L 5.953125 22.019531 Z M 5.953125 21.023438 "/>
<path style=" stroke:none;fill-rule:nonzero;fill:url(#radial0);" d="M 17.363281 21.023438 L 19.347656 21.023438 L 19.347656 20.03125 L 17.363281 20.03125 Z M 17.363281 21.023438 "/>
<path style=" stroke:none;fill-rule:nonzero;fill:url(#radial1);" d="M 5.953125 21.023438 L 3.96875 21.023438 L 3.96875 22.019531 L 5.953125 22.019531 Z M 5.953125 21.023438 "/>
<path style=" stroke:none;fill-rule:nonzero;fill:url(#radial2);" d="M 5.953125 21.023438 L 3.96875 21.023438 L 3.96875 20.03125 L 5.953125 20.03125 Z M 5.953125 21.023438 "/>
<path style=" stroke:none;fill-rule:nonzero;fill:url(#radial3);" d="M 17.363281 21.023438 L 19.347656 21.023438 L 19.347656 22.019531 L 17.363281 22.019531 Z M 17.363281 21.023438 "/>
<path style=" stroke:none;fill-rule:nonzero;fill:url(#linear1);" d="M 13.90625 2.171875 L 4.960938 2.171875 C 4.414062 2.171875 3.96875 2.613281 3.96875 3.164062 L 3.96875 20.03125 C 3.96875 20.582031 4.414062 21.023438 4.960938 21.023438 L 18.359375 21.023438 C 18.90625 21.023438 19.347656 20.582031 19.347656 20.03125 L 19.347656 7.617188 Z M 13.90625 2.171875 "/>
<path style=" stroke:none;fill-rule:nonzero;fill:rgb(0%,0%,0%);fill-opacity:0.235294;" d="M 3.96875 19.648438 L 3.96875 20.03125 C 3.96875 20.582031 4.414062 21.023438 4.960938 21.023438 L 18.359375 21.023438 C 18.90625 21.023438 19.347656 20.582031 19.347656 20.03125 L 19.347656 19.648438 C 19.347656 20.195312 18.90625 20.640625 18.359375 20.640625 L 4.960938 20.640625 C 4.414062 20.640625 3.96875 20.195312 3.96875 19.648438 Z M 3.96875 19.648438 "/>
<path style=" stroke:none;fill-rule:nonzero;fill:url(#linear2);" d="M 13.890625 6.761719 L 18.605469 6.761719 L 19.347656 7.507812 L 19.347656 8.496094 L 13.890625 8.496094 Z M 13.890625 6.761719 "/>
<path style=" stroke:none;fill-rule:nonzero;fill:rgb(100%,100%,100%);fill-opacity:0.392157;" d="M 4.960938 2.171875 C 4.414062 2.171875 3.96875 2.613281 3.96875 3.164062 L 3.96875 3.535156 C 3.96875 2.988281 4.410156 2.542969 4.960938 2.542969 L 13.90625 2.542969 L 19.347656 7.988281 L 19.347656 7.617188 L 13.90625 2.171875 Z M 4.960938 2.171875 "/>
<path style=" stroke:none;fill-rule:nonzero;fill:url(#linear3);" d="M 19.347656 7.617188 L 13.90625 2.171875 L 13.90625 6.621094 C 13.90625 7.171875 14.351562 7.617188 14.898438 7.617188 Z M 19.347656 7.617188 "/>
<path style=" stroke:none;fill-rule:nonzero;fill:rgb(0%,0%,0%);fill-opacity:0.235294;" d="M 13.90625 6.390625 L 13.90625 6.621094 C 13.90625 7.171875 14.351562 7.617188 14.898438 7.617188 L 19.347656 7.617188 L 19.117188 7.382812 L 14.898438 7.382812 C 14.351562 7.382812 13.90625 6.9375 13.90625 6.390625 Z M 13.90625 6.390625 "/>
<path style=" stroke:none;fill-rule:nonzero;fill:rgb(100%,100%,100%);fill-opacity:0.392157;" d="M 13.90625 2.171875 L 13.90625 2.542969 L 18.976562 7.617188 L 19.347656 7.617188 Z M 13.90625 2.171875 "/>
<path style=" stroke:none;fill-rule:nonzero;fill:rgb(12.941177%,12.941177%,12.941177%);fill-opacity:1;" d="M 13.90625 2.101562 C 13.867188 2.101562 13.835938 2.132812 13.835938 2.171875 L 13.835938 6.621094 C 13.835938 7.210938 14.3125 7.6875 14.898438 7.6875 L 19.347656 7.6875 C 19.378906 7.683594 19.402344 7.667969 19.414062 7.640625 C 19.425781 7.617188 19.417969 7.585938 19.398438 7.566406 L 13.957031 2.121094 C 13.941406 2.109375 13.925781 2.101562 13.90625 2.101562 Z M 13.976562 2.34375 L 19.179688 7.542969 L 14.898438 7.542969 C 14.386719 7.542969 13.976562 7.136719 13.976562 6.621094 Z M 13.976562 2.34375 "/>
<path style=" stroke:none;fill-rule:nonzero;fill:rgb(12.941177%,12.941177%,12.941177%);fill-opacity:1;" d="M 4.960938 2.101562 C 4.375 2.101562 3.898438 2.578125 3.898438 3.164062 L 3.898438 20.03125 C 3.898438 20.621094 4.375 21.09375 4.960938 21.09375 L 18.359375 21.09375 C 18.945312 21.09375 19.417969 20.621094 19.417969 20.03125 L 19.417969 7.617188 C 19.417969 7.597656 19.414062 7.578125 19.398438 7.566406 L 13.957031 2.121094 C 13.941406 2.109375 13.925781 2.101562 13.90625 2.101562 Z M 4.960938 2.242188 L 13.878906 2.242188 L 19.277344 7.644531 L 19.277344 20.03125 C 19.277344 20.542969 18.867188 20.953125 18.359375 20.953125 L 4.960938 20.953125 C 4.449219 20.953125 4.039062 20.542969 4.039062 20.03125 L 4.039062 3.164062 C 4.039062 2.652344 4.449219 2.242188 4.960938 2.242188 Z M 4.960938 2.242188 "/>
<path style="fill-rule:nonzero;fill:url(#linear4);stroke-width:3;stroke-linecap:round;stroke-linejoin:round;stroke:rgb(12.941177%,12.941177%,12.941177%);stroke-opacity:1;stroke-miterlimit:4;" d="M 164.067605 -31.100887 L 333.38469 -31.100887 C 336.301077 -31.100887 338.634186 -28.684452 338.634186 -25.768066 L 338.634186 -15.185748 C 338.634186 -12.269361 336.301077 -9.936251 333.38469 -9.936251 L 164.067605 -9.936251 C 161.151218 -9.936251 158.734783 -12.269361 158.734783 -15.185748 L 158.734783 -25.768066 C 158.734783 -28.684452 161.151218 -31.100887 164.067605 -31.100887 Z M 164.067605 -31.100887 " transform="matrix(0.0468795,0,0,0.0468795,-0.00000075,10.079088)"/>
<path style="fill-rule:nonzero;fill:url(#linear5);stroke-width:3;stroke-linecap:round;stroke-linejoin:round;stroke:rgb(12.941177%,12.941177%,12.941177%);stroke-opacity:1;stroke-miterlimit:4;" d="M 164.067605 11.228384 L 333.38469 11.228384 C 336.301077 11.228384 338.634186 13.644819 338.634186 16.561206 L 338.634186 27.143524 C 338.634186 30.05991 336.301077 32.39302 333.38469 32.39302 L 164.067605 32.39302 C 161.151218 32.39302 158.734783 30.05991 158.734783 27.143524 L 158.734783 16.561206 C 158.734783 13.644819 161.151218 11.228384 164.067605 11.228384 Z M 164.067605 11.228384 " transform="matrix(0.0468795,0,0,0.0468795,-0.00000075,10.079088)"/>
<path style="fill-rule:nonzero;fill:url(#linear6);stroke-width:3;stroke-linecap:round;stroke-linejoin:round;stroke:rgb(12.941177%,12.941177%,12.941177%);stroke-opacity:1;stroke-miterlimit:4;" d="M 164.067605 53.557655 L 259.308465 53.557655 C 262.224852 53.557655 264.557961 55.97409 264.557961 58.890477 L 264.557961 69.472795 C 264.557961 72.389182 262.224852 74.722291 259.308465 74.722291 L 164.067605 74.722291 C 161.151218 74.722291 158.734783 72.389182 158.734783 69.472795 L 158.734783 58.890477 C 158.734783 55.97409 161.151218 53.557655 164.067605 53.557655 Z M 164.067605 53.557655 " transform="matrix(0.0468795,0,0,0.0468795,-0.00000075,10.079088)"/>
<path style="fill-rule:nonzero;fill:url(#linear7);stroke-width:3;stroke-linecap:round;stroke-linejoin:round;stroke:rgb(12.941177%,12.941177%,12.941177%);stroke-opacity:1;stroke-miterlimit:4;" d="M 164.067605 95.886927 L 259.308465 95.886927 C 262.224852 95.886927 264.557961 98.303361 264.557961 101.219748 L 264.557961 111.802066 C 264.557961 114.718453 262.224852 117.134888 259.308465 117.134888 L 164.067605 117.134888 C 161.151218 117.134888 158.734783 114.718453 158.734783 111.802066 L 158.734783 101.219748 C 158.734783 98.303361 161.151218 95.886927 164.067605 95.886927 Z M 164.067605 95.886927 " transform="matrix(0.0468795,0,0,0.0468795,-0.00000075,10.079088)"/>
<path style="fill-rule:evenodd;fill:url(#linear8);stroke-width:3;stroke-linecap:round;stroke-linejoin:round;stroke:rgb(12.941177%,12.941177%,12.941177%);stroke-opacity:1;stroke-miterlimit:4;" d="M 285.722581 55.390828 C 283.306146 55.390828 281.389664 57.307311 281.389664 59.723746 L 281.389664 112.635335 C 281.389664 115.968348 284.972653 118.051482 287.88904 116.4683 L 336.301061 90.054168 C 339.384098 88.387662 339.384098 83.971419 336.301061 82.304912 L 287.88904 55.89078 C 287.222437 55.557479 286.472509 55.390828 285.722581 55.390828 Z M 285.722581 55.390828 " transform="matrix(0.0468795,0,0,0.0468795,0,10.079087)"/>
</g>
</svg>
